X: 10749
T: Dr. Gilbert's
R: reel
M: 4/4
K: Eminor
g3f|:e~B3 BAB2|dBAF AFDf|e~B3 Bege|afdf efge|
e~B3 BAB^c|dBAF AFA2|B~e3 Bege|afdf efgf:|
|:e~B3 g~B3|defg afdf|~g2bg fgaf|egfd edBA|
afdf edB^c|dBAF AFA2|B~e3 Begb|afdf efgf:|

